X:1
T:Vals efter Ola Olsson i G (2)
M:3/4
L:1/8
O:Skarup, Blekinge
R:Vals
N:By ...
Z:Andy Davey 2018
K:G
BA | G2 G2 BA | G2 G2 Bd | gf ed cB | d2 c2 cB | A2 A2 cB | A2 A2 Bc | ed ^cd =cA | G4 :|
GB | d2 dd ed | c2 A2 AB | c2 cc dc | B2 G2 Bd | gf ed cB | AB cd ef | ge cA FA | G4 :|

